X:1
T: Up in the Morning Early
C:
R:Jig
Q:180
K:Bb
M:6/8
L:1/16
D2|G4A2 B4c2|d3=ef2 F4F2|G3AG2 d3cBA|G6 d4D2|
G4A2 B4c2|d3=ef2 F4F2|G3AG2 d3cBA|G6 d4:|
|:z2|B3cB2 B4B2|c3dc2 c6|d3ef2 g3fe2|d6 f4F2|
B3cB2 B4B2|c2d2f2 g4fe|d3cB2 c3BA2|G6 d4:|
